packages/match-icons/sendgrid/svg/chevron-up.svg

<svg fill="none" height="16" viewBox="0 0 16 16" width="16" xmlns="http://www.w3.org/2000/svg"><path clip-rule="evenodd" d="m8 6.86272 5.2686 5.26858c.6249.6249 1.6379.6249 2.2628 0 .6248-.6248.6248-1.6379 0-2.2627l-6.40003-6.39999c-.62484-.62484-1.6379-.62484-2.26274 0l-6.400001 6.39999c-.624839.6248-.624839 1.6379 0 2.2627.624841.6249 1.637901.6249 2.262741 0z" fill="#394762" fill-rule="evenodd"/></svg>

<svg width="16" height="16" viewBox="0 0 16 16" fill="none" xmlns="http://www.w3.org/2000/svg">
<path fill-rule="evenodd" clip-rule="evenodd" d="M8 6.86272L13.2686 12.1313C13.8935 12.7562 14.9065 12.7562 15.5314 12.1313C16.1562 11.5065 16.1562 10.4934 15.5314 9.8686L9.13137 3.46861C8.50653 2.84377 7.49347 2.84377 6.86863 3.46861L0.468629 9.8686C-0.15621 10.4934 -0.15621 11.5065 0.468629 12.1313C1.09347 12.7562 2.10653 12.7562 2.73137 12.1313L8 6.86272Z" fill="#394762"/>
</svg>
